!!!OTL: 419c. Das Muehlrad.
!!!ARE: Europa, Mitteleuropa, Deutschland, Hessen; Westfalen; Franken
!!!SCT: E0419A
!!!TXL: @@DE
!!!YEM: Copyright 1995, estate of Helmut Schaffrath.
**kern	**text
*ICvox	*
*M6/8	*
*k[f#]	*
*G:	*
!LO:TX:a:t=Mäßig langsam.	!
!LO:TX:a:t=Var. bei Silcher und Fink.	!
{8d	Da
=1	=1
8.g	dro-
16a	-ben
16bL	auf
16ccJ	.
8.ddL	je-
16eeJ	.
16ddL	-nem
16ccJ	.
=2	=2
(4b/	Ber-
8a)	.
4g}	-ge
{8a	da
=3	=3
8.bL	ſteht
16ccJ	.
8dd	ein
8ddL	ho-
8ccJ	.
8b	-hes
=4	=4
[4.a	Haus,
8a]	.
8r}	.
{16bL	da
16ccJ	.
=5	=5
8dd	ſchau-
8b	-en
8dd	wol
8dd	al-
8b	-le
8dd	Früh-
=6	=6
(8.eeL	-mor-
16ff#	.
8eeJ)	.
4dd}	-gen
{8cc	drei
=7	=7
8.b	ſchö-
16cc	-ne
8b	Jung-
8a	-frau-
8g	-en
8a	her-
=8	=8
[4.g	-aus.
8g]	.
8r}	.
==	==
!!!AGN: Liebes - Lied, Abschied
!!!ONB: ESAC (Essen Associative Code) Database: ERK1
!!!AMT: compound duple
!!!AIN: vox
!!!EED: Helmut Schaffrath
!!!EEV: 1.0
!!!GTL: Liebeslieder [Alte (aus dem 13. bis 17. Jahrh.) mit ihrem jungen Nachwuchs]
!!!URL-scan: https://rosdok.uni-rostock.de/mcrviewer/recordIdentifier/rosdok_ppn745177662/iview2/phys_0238.iview2?x=-778.7160746633431&y=1077.4370305910707&scale=0.3980252647138593&rotation=0&layout=singlePageLayout
!!!ENC: Anna Maria Matuszewska
!!!EEV: 2024/09/12
*-	*-
